flaticon/wild-west/arrow.svg

<svg xmlns="http://www.w3.org/2000/svg" width="32" height="32" viewBox="0 0 24 24">
    <path d="M13.136719 4.398438C13.136719 4.617188 12.960938 4.796875 12.738281 4.796875 12.515625 4.796875 12.339844 4.617188 12.339844 4.398438 12.339844 4.175781 12.515625 3.996094 12.738281 3.996094 12.960938 3.996094 13.136719 4.175781 13.136719 4.398438zM13.9375 5.199219C13.9375 5.417969 13.757812 5.597656 13.539062 5.597656 13.316406 5.597656 13.136719 5.417969 13.136719 5.199219 13.136719 4.976562 13.316406 4.796875 13.539062 4.796875 13.757812 4.796875 13.9375 4.976562 13.9375 5.199219zM13.9375 6.796875C13.9375 7.019531 13.757812 7.199219 13.539062 7.199219 13.316406 7.199219 13.136719 7.019531 13.136719 6.796875 13.136719 6.578125 13.316406 6.398438 13.539062 6.398438 13.757812 6.398438 13.9375 6.578125 13.9375 6.796875zM13.136719 7.597656C13.136719 7.820312 12.960938 8 12.738281 8 12.515625 8 12.339844 7.820312 12.339844 7.597656 12.339844 7.378906 12.515625 7.199219 12.738281 7.199219 12.960938 7.199219 13.136719 7.378906 13.136719 7.597656zM13.9375 8.398438C13.9375 8.617188 13.757812 8.796875 13.539062 8.796875 13.316406 8.796875 13.136719 8.617188 13.136719 8.398438 13.136719 8.175781 13.316406 8 13.539062 8 13.757812 8 13.9375 8.175781 13.9375 8.398438zM13.9375 10C13.9375 10.21875 13.757812 10.398438 13.539062 10.398438 13.316406 10.398438 13.136719 10.21875 13.136719 10 13.136719 9.777344 13.316406 9.597656 13.539062 9.597656 13.757812 9.597656 13.9375 9.777344 13.9375 10zM13.9375 11.597656C13.9375 11.820312 13.757812 12 13.539062 12 13.316406 12 13.136719 11.820312 13.136719 11.597656 13.136719 11.378906 13.316406 11.199219 13.539062 11.199219 13.757812 11.199219 13.9375 11.378906 13.9375 11.597656zM13.9375 13.199219C13.9375 13.417969 13.757812 13.597656 13.539062 13.597656 13.316406 13.597656 13.136719 13.417969 13.136719 13.199219 13.136719 12.976562 13.316406 12.796875 13.539062 12.796875 13.757812 12.796875 13.9375 12.976562 13.9375 13.199219zM13.136719 10.796875C13.136719 11.019531 12.960938 11.199219 12.738281 11.199219 12.515625 11.199219 12.339844 11.019531 12.339844 10.796875 12.339844 10.578125 12.515625 10.398438 12.738281 10.398438 12.960938 10.398438 13.136719 10.578125 13.136719 10.796875zM14.738281 10.796875C14.738281 11.019531 14.558594 11.199219 14.339844 11.199219 14.117188 11.199219 13.9375 11.019531 13.9375 10.796875 13.9375 10.578125 14.117188 10.398438 14.339844 10.398438 14.558594 10.398438 14.738281 10.578125 14.738281 10.796875zM14.738281 12.398438C14.738281 12.621094 14.558594 12.796875 14.339844 12.796875 14.117188 12.796875 13.9375 12.621094 13.9375 12.398438 13.9375 12.175781 14.117188 12 14.339844 12 14.558594 12 14.738281 12.175781 14.738281 12.398438zM15.539062 11.597656C15.539062 11.820312 15.359375 12 15.136719 12 14.917969 12 14.738281 11.820312 14.738281 11.597656 14.738281 11.378906 14.917969 11.199219 15.136719 11.199219 15.359375 11.199219 15.539062 11.378906 15.539062 11.597656zM15.539062 13.199219C15.539062 13.417969 15.359375 13.597656 15.136719 13.597656 14.917969 13.597656 14.738281 13.417969 14.738281 13.199219 14.738281 12.976562 14.917969 12.796875 15.136719 12.796875 15.359375 12.796875 15.539062 12.976562 15.539062 13.199219zM14.738281 9.199219C14.738281 9.417969 14.558594 9.597656 14.339844 9.597656 14.117188 9.597656 13.9375 9.417969 13.9375 9.199219 13.9375 8.976562 14.117188 8.796875 14.339844 8.796875 14.558594 8.796875 14.738281 8.976562 14.738281 9.199219zM14.738281 7.597656C14.738281 7.820312 14.558594 8 14.339844 8 14.117188 8 13.9375 7.820312 13.9375 7.597656 13.9375 7.378906 14.117188 7.199219 14.339844 7.199219 14.558594 7.199219 14.738281 7.378906 14.738281 7.597656zM14.738281 7.597656"/>
    <path d="M 17.839844 16.507812 C 17.753906 15.824219 17.421875 15.023438 16.871094 14.570312 C 16.921875 14.457031 16.914062 14.320312 16.859375 14.207031 C 17.03125 12.914062 16.570312 12 16.253906 10.695312 C 15.925781 9.339844 15.863281 7.921875 15.542969 6.554688 C 15.394531 5.929688 15.105469 5.460938 14.914062 4.835938 C 14.65625 3.984375 14.761719 3.210938 14.40625 2.398438 C 14.167969 1.859375 13.449219 -0.15625 12.449219 0.0117188 C 11.585938 0.152344 10.730469 2.160156 10.355469 2.84375 C 9.625 4.171875 9.847656 5.703125 9.324219 6.949219 C 8.742188 8.335938 8.355469 9.871094 7.8125 11.335938 C 7.488281 12.203125 6.640625 13.679688 6.992188 14.648438 C 6.050781 15.316406 6.058594 16.378906 6.230469 17.550781 C 6.253906 17.71875 6.457031 17.847656 6.613281 17.84375 C 7.601562 17.820312 8.433594 18.285156 9.390625 18.390625 C 9.707031 18.421875 10.023438 18.410156 10.339844 18.378906 L 10.339844 23.601562 C 10.339844 23.820312 10.519531 24 10.738281 24 C 10.960938 24 11.136719 23.820312 11.136719 23.601562 L 11.136719 21.367188 L 12.339844 20.164062 L 13.539062 21.367188 L 13.539062 23.601562 C 13.539062 23.820312 13.71875 24 13.9375 24 C 14.160156 24 14.339844 23.820312 14.339844 23.601562 L 14.339844 18.296875 C 15.121094 18.316406 15.898438 18.273438 16.753906 17.992188 C 17.578125 17.726562 17.949219 17.359375 17.839844 16.507812 Z M 13.976562 16.160156 L 16.597656 15.636719 C 16.679688 15.820312 16.746094 16.007812 16.75 16.113281 C 16.761719 16.351562 16.714844 16.539062 16.636719 16.691406 Z M 7.03125 16.734375 C 6.835938 16.390625 6.871094 15.96875 7.148438 15.609375 L 9.898438 16.160156 Z M 7.910156 14.945312 C 7.929688 14.898438 7.9375 14.851562 7.933594 14.800781 C 10.613281 14.800781 13.292969 14.800781 15.972656 14.800781 C 15.988281 14.847656 16.007812 14.890625 16.039062 14.929688 L 11.9375 15.75 Z M 9.214844 10.140625 C 9.632812 9.164062 9.855469 8.234375 10.222656 7.246094 C 10.527344 6.421875 10.3125 5.71875 10.488281 4.800781 C 10.628906 4.070312 11.703125 1.375 12.597656 1.480469 C 12.738281 1.5 12.863281 1.550781 12.976562 1.632812 C 12.835938 1.695312 12.738281 1.835938 12.738281 1.996094 C 12.738281 2.21875 12.917969 2.398438 13.136719 2.398438 C 13.253906 2.398438 13.355469 2.347656 13.429688 2.269531 C 13.554688 2.558594 13.640625 2.898438 13.707031 3.238281 C 13.65625 3.214844 13.597656 3.195312 13.539062 3.195312 C 13.316406 3.195312 13.140625 3.375 13.140625 3.597656 C 13.140625 3.816406 13.316406 3.996094 13.539062 3.996094 C 13.644531 3.996094 13.742188 3.953125 13.8125 3.886719 C 13.863281 4.246094 13.898438 4.566406 13.9375 4.769531 C 13.996094 5.066406 14.078125 5.355469 14.167969 5.636719 C 14.035156 5.703125 13.9375 5.835938 13.9375 5.996094 C 13.9375 6.21875 14.117188 6.398438 14.339844 6.398438 C 14.363281 6.398438 14.386719 6.386719 14.410156 6.382812 C 14.523438 6.726562 14.632812 7.074219 14.707031 7.4375 C 14.855469 8.152344 15.082031 8.894531 15.25 9.621094 C 15.214844 9.609375 15.179688 9.597656 15.140625 9.597656 C 14.917969 9.597656 14.738281 9.777344 14.738281 9.996094 C 14.738281 10.21875 14.917969 10.398438 15.140625 10.398438 C 15.242188 10.398438 15.335938 10.355469 15.40625 10.292969 C 15.546875 10.859375 15.722656 11.4375 15.863281 12.011719 C 15.679688 12.050781 15.539062 12.203125 15.539062 12.398438 C 15.539062 12.617188 15.71875 12.796875 15.9375 12.796875 C 15.96875 12.796875 15.992188 12.789062 16.019531 12.78125 C 16.0625 13.0625 16.085938 13.347656 16.085938 13.628906 C 16.042969 13.609375 15.992188 13.597656 15.9375 13.597656 C 15.71875 13.597656 15.539062 13.777344 15.539062 14 C 15.269531 14 15.003906 14 14.738281 14 C 14.738281 13.777344 14.558594 13.597656 14.339844 13.597656 C 14.117188 13.597656 13.9375 13.777344 13.9375 14 C 13.671875 14 13.40625 14 13.136719 14 C 13.136719 13.777344 12.957031 13.597656 12.738281 13.597656 C 12.515625 13.597656 12.335938 13.777344 12.335938 14 C 10.800781 14 9.261719 14 7.722656 14 C 7.820312 12.914062 9.007812 10.632812 9.214844 10.140625 Z M 11.84375 18.222656 C 11.9375 18.21875 12.03125 18.214844 12.125 18.214844 C 12.210938 18.214844 12.296875 18.214844 12.378906 18.21875 C 12.621094 18.222656 12.863281 18.242188 13.105469 18.269531 L 12.339844 19.035156 L 11.546875 18.242188 C 11.605469 18.238281 11.667969 18.230469 11.730469 18.226562 C 11.769531 18.222656 11.804688 18.222656 11.84375 18.222656 Z M 11.136719 20.234375 L 11.136719 18.964844 L 11.773438 19.597656 Z M 12.902344 19.597656 L 13.539062 18.964844 L 13.539062 20.234375 Z M 13.722656 17.542969 L 13.71875 17.542969 C 13.613281 17.527344 13.507812 17.511719 13.40625 17.496094 C 12.675781 17.394531 11.933594 17.386719 11.203125 17.464844 C 11.183594 17.46875 11.164062 17.472656 11.144531 17.472656 C 10.335938 17.539062 9.550781 17.621094 8.695312 17.410156 C 8.574219 17.378906 8.390625 17.351562 8.191406 17.316406 L 11.9375 16.566406 L 15.796875 17.339844 C 15.792969 17.339844 15.789062 17.34375 15.785156 17.34375 C 15.117188 17.640625 14.421875 17.613281 13.722656 17.542969 Z M 13.722656 17.542969"/>
</svg>

<svg xmlns="http://www.w3.org/2000/svg" width="32" height="32" viewBox="0 0 24 24">
    <path d="M13.137 4.398a.398.398 0 1 1-.797 0 .398.398 0 1 1 .797 0zm0 0M13.938 5.2a.4.4 0 1 1-.8-.004.4.4 0 0 1 .8.003zm0 0M13.938 6.797a.401.401 0 1 1-.802.003.401.401 0 0 1 .802-.003zm0 0M13.137 7.598a.398.398 0 1 1-.797 0 .398.398 0 1 1 .797 0zm0 0M13.938 8.398a.4.4 0 0 1-.801 0c0-.222.18-.398.402-.398.219 0 .399.176.399.398zm0 0M13.938 10a.4.4 0 1 1-.8-.003.4.4 0 0 1 .8.003zm0 0M13.938 11.598a.401.401 0 1 1-.802.002.401.401 0 0 1 .802-.002zm0 0M13.938 13.2a.4.4 0 1 1-.8-.004.4.4 0 0 1 .8.003zm0 0M13.137 10.797a.398.398 0 1 1-.797 0 .398.398 0 1 1 .797 0zm0 0M14.738 10.797a.401.401 0 1 1-.802.003.401.401 0 0 1 .802-.003zm0 0M14.738 12.398c0 .223-.18.399-.398.399a.398.398 0 1 1 0-.797c.219 0 .398.176.398.398zm0 0M15.54 11.598a.401.401 0 1 1 0 0zm0 0M15.54 13.2a.401.401 0 1 1-.803-.006.401.401 0 0 1 .802.005zm0 0M14.738 9.2a.4.4 0 1 1-.8-.004.4.4 0 0 1 .8.003zm0 0M14.738 7.598a.401.401 0 1 1-.802.002.401.401 0 0 1 .802-.002zm0 0"/>
    <path d="M17.84 16.508c-.086-.684-.418-1.485-.969-1.938a.438.438 0 0 0-.012-.363c.172-1.293-.289-2.207-.605-3.512-.328-1.355-.39-2.773-.711-4.14-.148-.625-.438-1.094-.629-1.72-.258-.85-.152-1.624-.508-2.437-.238-.539-.957-2.554-1.957-2.386-.863.14-1.719 2.148-2.094 2.832-.73 1.328-.507 2.86-1.03 4.105-.583 1.387-.97 2.922-1.512 4.387-.325.867-1.172 2.344-.82 3.312-.942.668-.934 1.73-.763 2.903.024.168.227.297.383.293.989-.024 1.82.441 2.778.547.316.03.632.02.949-.012v5.223a.398.398 0 1 0 .797 0v-2.235l1.203-1.203 1.2 1.203v2.235a.4.4 0 0 0 .8 0v-5.305c.781.02 1.558-.024 2.414-.305.824-.265 1.195-.633 1.086-1.484zm-3.863-.348l2.62-.523c.083.183.15.37.153.476.012.239-.035.426-.113.578zm-6.946.574c-.195-.343-.16-.765.117-1.125l2.75.551zm.88-1.789a.305.305 0 0 0 .023-.144h8.039c.015.047.035.09.066.129l-4.102.82zm1.304-4.804c.418-.977.64-1.907 1.008-2.895.304-.824.09-1.527.265-2.445.14-.73 1.215-3.426 2.11-3.32.14.019.265.07.379.152a.4.4 0 1 0 .453.637c.125.289.21.628.277.968a.411.411 0 0 0-.168-.043.398.398 0 0 0-.398.403.398.398 0 0 0 .671.289c.051.36.086.68.126.883.058.296.14.585.23.867a.404.404 0 0 0-.23.36c0 .222.18.401.402.401.023 0 .047-.011.07-.015.113.344.223.691.297 1.054.148.715.375 1.458.543 2.184-.035-.012-.07-.023-.11-.023a.401.401 0 1 0 0 .8.404.404 0 0 0 .266-.105c.14.566.317 1.145.457 1.719a.397.397 0 0 0-.324.386.4.4 0 0 0 .399.399c.03 0 .054-.008.082-.016.043.281.066.567.066.848a.36.36 0 0 0-.148-.031.401.401 0 0 0-.399.402h-.8a.401.401 0 1 0-.802 0h-.8a.401.401 0 1 0-.801 0H7.723c.097-1.086 1.285-3.367 1.492-3.86zm2.629 8.082c.094-.004.187-.008.281-.008.086 0 .172 0 .254.004.242.004.484.023.726.05l-.765.766-.793-.793c.058-.004.121-.012.183-.015.04-.004.075-.004.114-.004zm-.707 2.011v-1.27l.636.634zm1.765-.636l.637-.633v1.27zm.82-2.055h-.003l-.313-.047a9.04 9.04 0 0 0-2.261-.023c-.81.066-1.594.148-2.45-.063-.12-.031-.304-.058-.504-.094l3.746-.75 3.86.774c-.004 0-.008.004-.012.004-.668.297-1.363.27-2.062.199zm0 0"/>
</svg>
